X: 707
T: Fangjin zhangsheng lai
%%abc-version 2.0
%%abcx-abcm2ps-target-version 5.9.1 (29 Sep 2008)
%%abc-creator hum2abc beta
%%abcx-conversion-date 2013/10/02 07:52:30
%%abc-edited-by Helmut Schaffrath
%%humdrum-veritas 1524134476
%%humdrum-veritas-data 3409670941
%%continueall 1
%%barnumbers 0
L: 1/16
M: 2/4
K: F
c c c d f g f d [I:setbarnb 1]| 
c2> d2 A2 G A | 
c c c d f g f d | 
c2> d2 A2 G A | 
c Ac4d f | 
d2 c2 c2 G2 | 
A c A G A c A G | 
F2> G2F4 | 
A G F2 G3 A | 
c2> d2 f3 A | 
G2 A2 G A G F | 
G FD4D F | 
G2> A2 F2 D2 | 
c2 d fc4 |]  



